X:14766
T:Saint Anne's Reel
R:reel
O:French Canadian
Z:id:hn-reel-462
M:C|
K:D
fedf edcB|A2FA DAFA|B2GB EBGB|A2FA DAFA|
fedf edcB|A2FA DAFA|Beed cABc|eddc d2de:|
|:f2fg fedc|Bggf ~g3f|edcB ABce|baa^g a3=g|
f2fg fedc|Bggf ~g3f|edcB ABcd|eddc d2de:|
